lib/svgs/talk.svg

<?xml version="1.0" encoding="UTF-8"?>
<svg width="16px" height="16px" viewBox="0 0 16 16" version="1.1" xmlns="http://www.w3.org/2000/svg" xmlns:xlink="http://www.w3.org/1999/xlink">
    <!-- Generator: sketchtool 51.3 (57544) - http://www.bohemiancoding.com/sketch -->
    <title>app/talk</title>
    <desc>Created with sketchtool.</desc>
    <defs></defs>
    <g id="Icons" stroke="none" stroke-width="1" fill="none" fill-rule="evenodd">
        <g id="Web" transform="translate(-245.000000, -504.000000)" fill="#000000">
            <g id="app/talk" transform="translate(245.000000, 504.000000)">
                <path d="M16,7.25 C16,3.8125 12.625,1 8.5,1 C4.375,1 1,3.8125 1,7.25 C1,10.6875 4.375,13.5 8.5,13.5 C9.125,13.5 9.75,13.4375 10.375,13.3125 L13.875,14.6875 C13.9375,14.6875 14,14.75 14.125,14.75 C14.25,14.75 14.375,14.6875 14.5,14.625 C14.6875,14.5 14.75,14.25 14.75,14.0625 L14.4375,11.125 C15.4375,10 16,8.625 16,7.25 L16,7.25 M9.75,9.125 L5.375,9.125 L5.375,7.875 L9.75,7.875 L9.75,9.125 L9.75,9.125 M11.625,6.625 L5.375,6.625 L5.375,5.375 L11.625,5.375 L11.625,6.625 L11.625,6.625" id="Shape"></path>
            </g>
        </g>
    </g>
</svg>

<svg xmlns="http://www.w3.org/2000/svg" viewBox="0 0 16 16">
    <path d="M16 7.25C16 3.812 12.625 1 8.5 1S1 3.813 1 7.25c0 3.438 3.375 6.25 7.5 6.25a9.54 9.54 0 0 0 1.875-.188l3.5 1.376c.063 0 .125.062.25.062s.25-.063.375-.125c.188-.125.25-.375.25-.563l-.313-2.937C15.438 10 16 8.625 16 7.25M9.75 9.125H5.375v-1.25H9.75v1.25m1.875-2.5h-6.25v-1.25h6.25v1.25"/>
</svg>
